X: 20982
T: Julia Clifford's
R: polka
M: 2/4
K: Dmajor
|:e|~f2 ge|~f2 ge|fd ed|e/f/e/d/ BA|
~f2 ge|~f2 ge|fd e/f/e/c/|df d:|
|:B|A>B AF|Af af|e>d ef/e/|dA B/c/d/B/|
A>B AF|Af af|ef gb|ef/e/ d:|

